assets/Thong sandal/Flat/thong_sandal_flat.svg

<svg width="32" height="32" viewBox="0 0 32 32" fill="none" xmlns="http://www.w3.org/2000/svg">
<path d="M21.5725 7C20.5431 4.08687 17.7656 2 14.5 2C10.3581 2 7 5.35813 7 9.5C7 10.8637 7.36375 12.1419 8 13.2437C8.06188 13.3512 8.12688 13.4569 8.19375 13.5606C8.69563 14.4619 10 17.3469 10 23C10 26.8663 13.1337 30 17 30C20.8663 30 24 26.8663 24 23C24 23 24.145 13.43 21.5725 7Z" fill="#5092FF"/>
<path d="M11.4276 9.07694C11.2522 7.78812 11.7964 6.58463 12.7194 6.09885L13.9992 8.84055C15.779 9.37655 19.0548 10.9902 20.5009 14.0327C22.0589 17.3109 21.3578 20.2183 20.8125 21.2622C19.6128 20.3118 19.4258 19.6885 19.2077 18.6602C19.1832 18.5449 19.1601 18.3961 19.1329 18.2204C18.9169 16.8286 18.4385 13.7453 14.9385 12.2098C13.767 11.6708 12.9624 11.3191 12.6544 11.1882C11.9019 12.33 11.094 13.6352 10.9654 14.1574C10.7161 15.1701 10.7161 15.3883 10.9654 16.7749C11.1388 17.7392 11.5592 19.2956 11.9418 20.7118C12.1094 21.3323 12.2698 21.9258 12.3989 22.4308C10.498 22.9294 10.0275 20.7651 9.74231 18.8555C9.47025 17.0337 9.21534 16.2113 8.96246 15.3954C8.95027 15.3561 8.93808 15.3168 8.92589 15.2773C8.70793 12.9366 10.1444 10.5778 11.4276 9.07694Z" fill="#3F5FFF"/>
<path d="M20.4262 12.085C19.1793 10.3725 17.4549 9.12375 15.4393 8.47375L15.0556 8.355C14.8137 8.28 14.6174 8.10063 14.5224 7.86625L13.9999 6.58375C13.8587 6.23125 13.5174 6 13.1381 6C12.4812 6 12.0318 6.66313 12.2762 7.27313L12.7974 8.555C12.9231 8.86437 12.8749 9.2175 12.6706 9.48125L11.8699 10.515C10.2362 12.4956 9.63306 15.1656 10.2556 17.6562L11.2587 21.6681C11.3724 22.1225 11.7799 22.4256 12.2281 22.4256C12.3081 22.4256 12.3899 22.4156 12.4712 22.3956C13.0068 22.2619 13.3331 21.7187 13.1987 21.1831L12.1956 17.1713C11.7262 15.2938 12.1812 13.2806 13.4124 11.7875L14.2524 10.7688C14.3537 10.655 14.6931 10.3413 15.2268 10.52C18.2974 11.6925 20.3318 14.6219 20.3318 17.94V20.3969C20.3318 20.935 20.7456 21.3987 21.2837 21.4237C21.8581 21.4506 22.3318 20.9931 22.3318 20.425V17.9394C22.3325 15.8219 21.6731 13.7969 20.4262 12.085Z" fill="#FFB02E"/>
</svg>

<svg xmlns="http://www.w3.org/2000/svg" width="32" height="32" fill="none"><path fill="#5092FF" d="M21.573 7a7.502 7.502 0 1 0-13.38 6.56C8.697 14.463 10 17.348 10 23a7 7 0 0 0 7 7 7 7 0 0 0 7-7s.145-9.57-2.427-16Z"/><path fill="#3F5FFF" d="M11.428 9.077c-.176-1.289.368-2.492 1.291-2.978L14 8.84c1.78.536 5.056 2.15 6.502 5.192 1.558 3.278.857 6.185.311 7.23-1.2-.951-1.386-1.575-1.604-2.603a8.797 8.797 0 0 1-.075-.44c-.216-1.391-.694-4.475-4.194-6.01a95.905 95.905 0 0 0-2.285-1.022c-.752 1.142-1.56 2.447-1.689 2.97-.249 1.012-.249 1.23 0 2.617.174.964.594 2.52.977 3.937.167.62.328 1.214.457 1.719-1.901.498-2.371-1.666-2.657-3.576-.272-1.821-.527-2.644-.78-3.46l-.036-.118c-.218-2.34 1.218-4.7 2.502-6.2Z"/><path fill="#FFB02E" d="M20.426 12.085a9.882 9.882 0 0 0-4.987-3.611l-.383-.119a.845.845 0 0 1-.534-.489L14 6.584a.929.929 0 0 0-1.724.69l.521 1.281a.937.937 0 0 1-.126.926l-.801 1.034a8.158 8.158 0 0 0-1.614 7.141l1.003 4.012a1 1 0 0 0 1.94-.485l-1.003-4.012a6.152 6.152 0 0 1 1.216-5.383l.84-1.02a.889.889 0 0 1 .975-.248 7.92 7.92 0 0 1 5.105 7.42v2.457c0 .538.414 1.002.952 1.027a1 1 0 0 0 1.048-.999v-2.486a9.877 9.877 0 0 0-1.906-5.854Z"/></svg>
